X: 89
T:Long Long Trail
% Nottingham Music Database
S:Kevin Briggs, via EF
M:6/8
K:G
D/2G/2|"G"B3 B3|B3 -B2c|"G"B3 B3-|B3 cBA|"C"G3 G3-|G3 A3|"G"B6-|B2A B2c|
"D7"d3 -d2c|"D7"d3 -d2c|"G"c3 B3|F3 G3|"A7"B3 A3|A3 B3|"D7"A6-|A3 D2G|"G"B3 B3\
|
B3 -B2c|"G"B3 B3-|B3 cBA|"C"G3 G3-|G3 A3|"G"B6-|B2A B2c|"D7"d3 -d2c|
"D7"d3 -d2c|"G"c3 B3|F3 G3|"G"B3 B3-|"D7"B2G A3|"G"G6-|G3 F3|"Em"E3 -E2F|\
E2F G2E|
"Am"c6|"Em"B6|"Em"E3 E2F|"B7"G3 F3|"Em"E6-|E6|"Em"E3 -E2F|E2F G2E|"Am"c6|\
"Em"B6|
"Em"E3 E2F|G3 ^A3|"B7"B6-|B6|"Em"E3 -E2F|E2F G2E|"Am"c6|"Em"B6|"Em"E3 E2F|\
"B7"G3 F3|
"Em"E6-|E6|"C"E2D E2F|G6|"C"E2D E2F|G3 E2F|"C"G3 G3|A3 ^A3|"B7"B6-|B4:|<end>
<start>
